X:003 
T:Annesbrook House (reel)
S:Jack Wade
F:file ID: cre.4/003annes_h
B:CRE4.123 (Teach Annesbrook)
Q:180
L:1/8
M:4/4
R:reel
K:C
"D dorian"
GE|DEFG ABAG|cEdE edcd|eage dfed|c2ec Add2|
DEFG ABAG|cE~E2 edda|geae cedc|AcGE D2:|
cd|eaab ageg|Acec gcAG|eage dfed|ecgc eddg|
eage dfed|c2 ec Ad d2|geae cedc|AcGE D2:|

%%%

